X:42
T:In Chymicis versanti Natura, Ratio, Experientia et lectio, sint Dux, scipio, perspicilia et lampas
T:Let Nature, Reason, Experience and reading be the Guide, staff, spectacles and lamp for the one versed in Chemistry
T:Fuga XLII
Z:Jack Campin <http://www.campin.me.uk/> version 1.3 Jan 2007
S:Michael Maier, Atalanta Fugiens (1618)
B:NLS H3.91.708 (Joscelyn Godwin's edition)
V:1 program 1 74               % Hippomenes
V:2 program 1 74               % Atalanta
V:3 program 1 75 transpose -12 % Golden Apple
M:C|
L:1/4
Q:1/2=112
K:G dorian
[V:1] z2 d2 _e2 f2 _e2 d2 g2 f2 d2 _e2  d3   c =B2 c2 A2 d2 c2 d2  c2 =B2||
[V:2] A2 B2  c2 B2  A2 d2 c2 A2 B2  A3   G ^F2  G2 E2 A2 G2 A2 G2 ^F2  G2||
[V:3] d2 d2  c2 d2  c2 B2 c2 d2 B2  c2  d2  A2  G2 A2 c2 B2 A2 B2  A2  G2||
%
[V:1] z2 d2 _e2 f2 _e2 d2 g2 f2 d2 _e2  d3   c =B2 c2 A2 d2 c2 d2  c2 =B2-B8|]
[V:2] A2 B2  c2 B2  A2 d2 c2 A2 B2  A3   G ^F2  G2 E2 A2 G2 A2 G2 ^F2  G2-G8|]
[V:3] d2 d2  c2 d2  c2 B2 c2 d2 B2  c2  d2  A2  G2 A2 c2 B2 A2 B2  A2  G2-G8|]


